src/pos-icons/gesture-two-double-tap.svg

<svg height="24" viewBox="0 0 24 24" width="24" xmlns="http://www.w3.org/2000/svg"><path d="m19 15.14v6.36c-.03.82-.68 1.47-1.5 1.5h-6.5c-.38 0-.74-.15-1-.43l-4.9-4.2.74-.77c.19-.21.46-.32.74-.32h.22l3.2 1.72v-10a1 1 0 0 1 1-1 1 1 0 0 1 1 1v-2a1 1 0 0 1 1-1 1 1 0 0 1 1 1v5l4.15 1.84c.51.23.85.74.85 1.3m-6-12.14a4 4 0 0 1 4 4c0 1.5-.8 2.77-2 3.46v-1.22c.61-.55 1-1.35 1-2.24a3 3 0 0 0 -3-3c-1.35 0-2.5.9-2.87 2.13-1.23.37-2.13 1.52-2.13 2.87 0 .89.39 1.69 1 2.24v1.22c-1.2-.69-2-1.96-2-3.46 0-1.62.97-3 2.35-3.65.65-1.38 2.03-2.35 3.65-2.35m0-2a6 6 0 0 1 6 6c0 2.06-1.04 3.88-2.62 4.96l-1.12-.5c1.63-.82 2.74-2.51 2.74-4.46a5 5 0 0 0 -5-5c-1.89 0-3.54 1.05-4.39 2.61-1.56.85-2.61 2.5-2.61 4.39 0 2.05 1.23 3.81 3 4.58v1.08c-2.33-.83-4-3.05-4-5.66 0-2.17 1.15-4.07 2.88-5.12 1.05-1.73 2.95-2.88 5.12-2.88z"/></svg>

<?xml version="1.0" encoding="UTF-8"?><!DOCTYPE svg PUBLIC "-//W3C//DTD SVG 1.1//EN" "http://www.w3.org/Graphics/SVG/1.1/DTD/svg11.dtd"><svg xmlns="http://www.w3.org/2000/svg" xmlns:xlink="http://www.w3.org/1999/xlink" version="1.1" id="mdi-gesture-two-double-tap" width="24" height="24" viewBox="0 0 24 24"><path d="M19,15.14V21.5C18.97,22.32 18.32,22.97 17.5,23H11C10.62,23 10.26,22.85 10,22.57L5.1,18.37L5.84,17.6C6.03,17.39 6.3,17.28 6.58,17.28H6.8L10,19V9A1,1 0 0,1 11,8A1,1 0 0,1 12,9V7A1,1 0 0,1 13,6A1,1 0 0,1 14,7V12L18.15,13.84C18.66,14.07 19,14.58 19,15.14M13,3A4,4 0 0,1 17,7C17,8.5 16.2,9.77 15,10.46V9.24C15.61,8.69 16,7.89 16,7A3,3 0 0,0 13,4C11.65,4 10.5,4.9 10.13,6.13C8.9,6.5 8,7.65 8,9C8,9.89 8.39,10.69 9,11.24V12.46C7.8,11.77 7,10.5 7,9C7,7.38 7.97,6 9.35,5.35C10,3.97 11.38,3 13,3M13,1A6,6 0 0,1 19,7C19,9.06 17.96,10.88 16.38,11.96L15.26,11.46C16.89,10.64 18,8.95 18,7A5,5 0 0,0 13,2C11.11,2 9.46,3.05 8.61,4.61C7.05,5.46 6,7.11 6,9C6,11.05 7.23,12.81 9,13.58V14.66C6.67,13.83 5,11.61 5,9C5,6.83 6.15,4.93 7.88,3.88C8.93,2.15 10.83,1 13,1Z" /></svg>
